src/icons/outline/users/agent.svg

<svg width="24" height="24" viewBox="0 0 24 24" fill="none" xmlns="http://www.w3.org/2000/svg">
<g clip-path="url(#clip0_5032_1542)">
<path fill-rule="evenodd" clip-rule="evenodd" d="M8.31543 13.4961C8.58903 13.4961 8.85246 13.5646 9.08398 13.6826C9.94714 14.1352 10.9581 14.3906 12.0107 14.3906C13.0632 14.3906 14.063 14.1351 14.9365 13.6826C15.1786 13.5547 15.442 13.4961 15.7051 13.4961L15.9092 13.5088C15.9763 13.5174 16.0423 13.5302 16.1055 13.5449C19.4947 14.3813 21.9999 17.3033 22 20.7861C22 22.0062 20.9578 23 19.6631 23H4.33691C3.04218 23 2 22.0062 2 20.7861C2.00014 17.3131 4.50537 14.3911 7.90527 13.5449C8.03159 13.5154 8.16882 13.4961 8.30566 13.4961H8.31543ZM15.6943 14.9717C14.5576 15.5619 13.2946 15.8672 12 15.8672C10.8671 15.8672 9.75039 15.6259 8.73438 15.1768L8.30566 14.9717C5.51629 15.6702 3.57924 18.051 3.5791 20.7861C3.5791 21.1895 3.91586 21.5244 4.33691 21.5244H19.6631C20.0841 21.5244 20.4209 21.1895 20.4209 20.7861C20.4208 18.1366 18.5936 15.8101 15.9531 15.041L15.6943 14.9717Z" fill="#3C3B44"/>
<path d="M12 1C15.9577 1 19.1785 4.07937 19.1787 7.86719V8.43848C19.1786 10.6522 17.305 12.4521 14.9893 12.4521H11.4004C10.7373 12.4521 10.2004 11.9313 10.2002 11.3018C10.2002 10.6721 10.7372 10.1602 11.4004 10.1602H12.5996C13.2522 10.1602 13.7891 10.6721 13.7891 11.3018H14.9893C16.6418 11.3018 17.9784 10.0225 17.9785 8.43848V7.86719C17.9783 4.80765 15.4694 2.30187 12.3076 2.14844L12 2.1416C8.69489 2.14161 6.01099 4.70907 6.01074 7.86719V8.43848C6.01063 8.76307 5.73641 9.01855 5.41016 9.01855C5.08408 9.01835 4.81066 8.76294 4.81055 8.43848V7.86719C4.81079 4.07937 8.03173 1 12 1Z" fill="#3C3B44"/>
<path fill-rule="evenodd" clip-rule="evenodd" d="M12.0107 3.29297C14.6527 3.29297 16.8005 5.33876 16.8008 7.86719V8.43848C16.8007 9.39277 15.9999 10.1602 15 10.1602H14.6846C14.2799 9.49589 13.5606 9.07345 12.7695 9.02344L12.6113 9.01855H11.4111C10.0848 9.01855 9.01074 10.0424 9.01074 11.3018V11.3799C9.01074 11.3996 9.01096 11.41 9.02148 11.4297C7.92675 10.5934 7.21094 9.32336 7.21094 7.86719C7.21118 5.33889 9.3477 3.29317 12 3.29297H12.0107ZM12 4.76855C10.2319 4.76876 8.79028 6.15553 8.79004 7.86719C8.79004 8.05413 8.81119 8.24177 8.84277 8.42871C9.53751 7.87774 10.432 7.54297 11.4004 7.54297H12.6006C13.5689 7.54301 14.4952 7.87748 15.2109 8.46777V7.86719C15.2107 6.1554 13.7683 4.76855 12 4.76855Z" fill="#3C3B44"/>
</g>
<defs>
<clipPath id="clip0_5032_1542">
<rect width="24" height="24" fill="white"/>
</clipPath>
</defs>
</svg>

<svg xmlns="http://www.w3.org/2000/svg" width="24" height="24" fill="none" viewBox="0 0 24 24"><g fill="currentColor" clip-path="url(#a)"><path fill-rule="evenodd" d="M8.315 13.496c.274 0 .537.069.769.187a6.3 6.3 0 0 0 2.927.708 6.36 6.36 0 0 0 2.926-.708c.242-.128.505-.187.768-.187l.204.013q.101.013.196.036c3.39.836 5.895 3.758 5.895 7.241C22 22.006 20.958 23 19.663 23H4.337C3.042 23 2 22.006 2 20.786c0-3.473 2.505-6.395 5.905-7.241a1.8 1.8 0 0 1 .4-.049zm7.38 1.476a8 8 0 0 1-3.695.895 8.1 8.1 0 0 1-3.266-.69l-.428-.205c-2.79.698-4.727 3.079-4.727 5.814a.75.75 0 0 0 .758.738h15.326a.75.75 0 0 0 .758-.738c0-2.65-1.827-4.976-4.468-5.745z" clip-rule="evenodd"/><path d="M12 1c3.958 0 7.179 3.08 7.179 6.867v.571c0 2.214-1.874 4.014-4.19 4.014H11.4c-.663 0-1.2-.52-1.2-1.15s.537-1.142 1.2-1.142h1.2c.652 0 1.19.512 1.19 1.142h1.2c1.652 0 2.988-1.28 2.989-2.864v-.57c0-3.06-2.51-5.566-5.671-5.72L12 2.142c-3.305 0-5.989 2.567-5.99 5.725v.571a.59.59 0 0 1-.6.58.59.59 0 0 1-.6-.58v-.57C4.81 4.078 8.033 1 12 1"/><path fill-rule="evenodd" d="M12.01 3.293c2.643 0 4.79 2.046 4.79 4.574v.571c0 .955-.8 1.722-1.8 1.722h-.315a2.42 2.42 0 0 0-1.915-1.137l-.159-.004h-1.2c-1.326 0-2.4 1.023-2.4 2.283v.078c0 .02 0 .03.01.05-1.094-.837-1.81-2.107-1.81-3.563C7.21 5.34 9.348 3.293 12 3.293zM12 4.769c-1.768 0-3.21 1.387-3.21 3.098 0 .187.021.375.053.562a4.1 4.1 0 0 1 2.557-.886h1.2a4.1 4.1 0 0 1 2.61.925v-.6c0-1.713-1.442-3.1-3.21-3.1" clip-rule="evenodd"/></g><defs><clipPath id="a"><path fill="currentColor" d="M0 0h24v24H0z"/></clipPath></defs></svg>
